X:17
T:Hearlequeen Hornpipe. JBu.17
T:Harlequin Hornpipe,aka. JBu.17
O:England,South Yorkshire
S:Joshua Burnett’s MS,c1835,S.Yorkshire
M:C|
L:1/8
Q:1/2=90
R:.hornpipe
Z:vmp.R.Greig.2010
K:Bb
F2|B2B2 Bdce|d2d2dfeg|fbag fedc|dBfd ecAF|
B2B2Bdce|d2d2dfeg|fbag fedc|B2d2B2:|
|:FE|DBFB DBFB|EBGB EBGB|ecAc ecAc|dBAB dBAB|
DBFB DBFB|EBGB EBGB|ecAc ecAc|B2d2B2:|

